X:8
T:The Royton (Sullivan's Glenn) (Bampton) (Binghamton)
T:Tip Top Polka
M:4/4
S:Binghamton MM
H:Dance composed by John Dexter with Steve Woodruff in 1977.
O:England; Oxfordshire; Bampton.
R:Polka
P:A(AB2)4
K:G
P:A
B>c|d2 d2 d2   e2|B2 B2 B2 G>A|B2  B2 B>c d2|A6A>B|
    c2 c2 c>d c>B|A2 A2 A3   B|c>B A>G F2 d2|G6  ||
P:B
e>f|g2 e2 e>d e>f|g2 d2 B4    |c2  c>B A2G>G|d6e>f|
    g2 e2 c2  e>f|g2 d2 B4    |c>B A>G F2 d2|G6  |]
%
W: Oh Glen-n-n, In an hour, I'd like a Glennburger, please.
W: With tomatoes and lettuce, pickles and onions and cheese.

